icons/svg/seamark/wreck.svg

<?xml version="1.0" encoding="UTF-8" standalone="no"?>
<svg
   xmlns:dc="http://purl.org/dc/elements/1.1/"
   xmlns:cc="http://creativecommons.org/ns#"
   xmlns:rdf="http://www.w3.org/1999/02/22-rdf-syntax-ns#"
   xmlns:svg="http://www.w3.org/2000/svg"
   xmlns="http://www.w3.org/2000/svg"
   xmlns:sodipodi="http://sodipodi.sourceforge.net/DTD/sodipodi-0.dtd"
   xmlns:inkscape="http://www.inkscape.org/namespaces/inkscape"
   width="580"
   height="580"
   id="svg2"
   version="1.1"
   inkscape:version="0.48.4 r9939"
   sodipodi:docname="wreck.svg">
  <defs
     id="defs13">
    <inkscape:path-effect
       effect="gears"
       id="path-effect3774"
       is_visible="true"
       teeth="6"
       phi="-1.2" />
    <inkscape:path-effect
       effect="bend_path"
       id="path-effect3772"
       is_visible="false"
       bendpath="m 95.790098,316.51174 c 144.429032,-206.42506 223.313032,-11.7428 339.548092,0"
       prop_scale="1.19"
       scale_y_rel="false"
       vertical="false"
       bendpath-nodetypes="cc" />
  </defs>
  <sodipodi:namedview
     pagecolor="#ffffff"
     bordercolor="#666666"
     borderopacity="1"
     objecttolerance="10"
     gridtolerance="10"
     guidetolerance="10"
     inkscape:pageopacity="0"
     inkscape:pageshadow="2"
     inkscape:window-width="1324"
     inkscape:window-height="739"
     id="namedview11"
     showgrid="false"
     inkscape:zoom="0.8137931"
     inkscape:cx="347.36069"
     inkscape:cy="309.3227"
     inkscape:window-x="42"
     inkscape:window-y="1024"
     inkscape:window-maximized="1"
     inkscape:current-layer="svg2" />
  <metadata
     id="metadata2975">image/svg+xmlen<rdf:RDF>
  <cc:Work
     rdf:about="">
    <dc:format>image/svg+xml</dc:format>
    <dc:type
       rdf:resource="http://purl.org/dc/dcmitype/StillImage" />
    <dc:title />
  </cc:Work>
</rdf:RDF>
</metadata>
  <path
     sodipodi:type="inkscape:offset"
     inkscape:radius="28.262712"
     inkscape:original="M 269.4375 151 L 269.4375 270 L 203.4375 270 L 203.4375 206.875 L 163.4375 206.875 L 163.4375 270 L 93.34375 270 L 93.34375 310 L 163.4375 310 L 163.4375 373.15625 L 203.4375 373.15625 L 203.4375 310 L 269.4375 310 L 269.4375 429 L 309.4375 429 L 309.4375 310 L 371.4375 310 L 371.4375 373.15625 L 411.4375 373.15625 L 411.4375 310 L 485.5 310 L 485.5 270 L 411.4375 270 L 411.4375 206.875 L 371.4375 206.875 L 371.4375 270 L 309.4375 270 L 309.4375 151 L 269.4375 151 z "
     style="font-size:medium;font-style:normal;font-variant:normal;font-weight:normal;font-stretch:normal;text-indent:0;text-align:start;text-decoration:none;line-height:normal;letter-spacing:normal;word-spacing:normal;text-transform:none;direction:ltr;block-progression:tb;writing-mode:lr-tb;text-anchor:start;baseline-shift:baseline;opacity:0.372;color:#000000;fill:#e4e4e4;fill-opacity:1;fill-rule:nonzero;stroke:#a35151;stroke-width:0;stroke-linecap:round;stroke-linejoin:miter;stroke-miterlimit:4;stroke-opacity:1;stroke-dasharray:none;stroke-dashoffset:0;marker:none;visibility:visible;display:inline;overflow:visible;enable-background:accumulate;font-family:Sans;-inkscape-font-specification:Sans"
     id="path3055"
     d="m 269.4375,122.75 a 28.265539,28.265539 0 0 0 -28.25,28.25 l 0,90.75 -9.5,0 0,-34.875 a 28.265539,28.265539 0 0 0 -28.25,-28.25 l -40,0 a 28.265539,28.265539 0 0 0 -28.25,28.25 l 0,34.875 -41.84375,0 a 28.265539,28.265539 0 0 0 -28.25,28.25 l 0,40 a 28.265539,28.265539 0 0 0 28.25,28.25 l 41.84375,0 0,34.90625 a 28.265539,28.265539 0 0 0 28.25,28.25 l 40,0 a 28.265539,28.265539 0 0 0 28.25,-28.25 l 0,-34.90625 9.5,0 0,90.75 a 28.265539,28.265539 0 0 0 28.25,28.25 l 40,0 a 28.265539,28.265539 0 0 0 28.25,-28.25 l 0,-90.75 5.5,0 0,34.90625 a 28.265539,28.265539 0 0 0 28.25,28.25 l 40,0 a 28.265539,28.265539 0 0 0 28.25,-28.25 l 0,-34.90625 45.8125,0 A 28.265539,28.265539 0 0 0 513.75,310 l 0,-40 A 28.265539,28.265539 0 0 0 485.5,241.75 l -45.8125,0 0,-34.875 a 28.265539,28.265539 0 0 0 -28.25,-28.25 l -40,0 a 28.265539,28.265539 0 0 0 -28.25,28.25 l 0,34.875 -5.5,0 0,-90.75 a 28.265539,28.265539 0 0 0 -28.25,-28.25 l -40,0 z" />
  <path
     style="fill:none;stroke:#000000;stroke-width:40;stroke-linecap:butt;stroke-linejoin:miter;stroke-miterlimit:4;stroke-opacity:1;stroke-dasharray:none"
     d="m 93.916746,290 392.166504,0"
     id="path2984"
     inkscape:connector-curvature="0" />
  <path
     style="fill:none;stroke:#000000;stroke-width:40;stroke-linecap:butt;stroke-linejoin:miter;stroke-miterlimit:4;stroke-opacity:1;stroke-dasharray:none"
     d="m 289.99999,428.99928 0,-277.99856"
     id="path2984-0-6"
     inkscape:connector-curvature="0" />
  <path
     style="fill:none;stroke:#000000;stroke-width:40;stroke-linecap:butt;stroke-linejoin:miter;stroke-miterlimit:4;stroke-opacity:1;stroke-dasharray:none"
     d="m 391.99999,373.13853 0,-166.27706"
     id="path2984-0-6-7"
     inkscape:connector-curvature="0" />
  <path
     style="fill:none;stroke:#000000;stroke-width:40;stroke-linecap:butt;stroke-linejoin:miter;stroke-miterlimit:4;stroke-opacity:1;stroke-dasharray:none"
     d="m 183.99999,373.13853 0,-166.27706"
     id="path2984-0-6-7-7"
     inkscape:connector-curvature="0" />
</svg>

<svg width="580" height="580" viewBox="0 0 580 580" fill="none" xmlns="http://www.w3.org/2000/svg">
<path opacity="0.372" d="M269.438 122.75C261.946 122.754 254.763 125.732 249.466 131.029C244.169 136.326 241.192 143.509 241.188 151V241.75H231.688V206.875C231.683 199.384 228.706 192.201 223.409 186.904C218.112 181.607 210.929 178.629 203.438 178.625H163.438C155.946 178.629 148.763 181.607 143.466 186.904C138.169 192.201 135.192 199.384 135.188 206.875V241.75H93.3438C85.8526 241.754 78.6695 244.732 73.3725 250.029C68.0755 255.326 65.0979 262.509 65.0938 270V310C65.0979 317.491 68.0755 324.674 73.3725 329.971C78.6695 335.268 85.8526 338.246 93.3438 338.25H135.188V373.156C135.192 380.647 138.169 387.83 143.466 393.127C148.763 398.424 155.946 401.402 163.438 401.406H203.438C210.929 401.402 218.112 398.424 223.409 393.127C228.706 387.83 231.683 380.647 231.688 373.156V338.25H241.188V429C241.192 436.491 244.169 443.674 249.466 448.971C254.763 454.268 261.946 457.246 269.438 457.25H309.438C316.929 457.246 324.112 454.268 329.409 448.971C334.706 443.674 337.683 436.491 337.688 429V338.25H343.188V373.156C343.192 380.647 346.169 387.83 351.466 393.127C356.763 398.424 363.946 401.402 371.438 401.406H411.438C418.929 401.402 426.112 398.424 431.409 393.127C436.706 387.83 439.683 380.647 439.688 373.156V338.25H485.5C492.991 338.246 500.174 335.268 505.471 329.971C510.768 324.674 513.746 317.491 513.75 310V270C513.746 262.509 510.768 255.326 505.471 250.029C500.174 244.732 492.991 241.754 485.5 241.75H439.688V206.875C439.683 199.384 436.706 192.201 431.409 186.904C426.112 181.607 418.929 178.629 411.438 178.625H371.438C363.946 178.629 356.763 181.607 351.466 186.904C346.169 192.201 343.192 199.384 343.188 206.875V241.75H337.688V151C337.683 143.509 334.706 136.326 329.409 131.029C324.112 125.732 316.929 122.754 309.438 122.75H269.438Z" fill="#E4E4E4"/>
<path d="M93.9167 290H486.083" stroke="black" stroke-width="40"/>
<path d="M290 428.999V151" stroke="black" stroke-width="40"/>
<path d="M392 373.138V206.861" stroke="black" stroke-width="40"/>
<path d="M184 373.138V206.861" stroke="black" stroke-width="40"/>
</svg>
